Newaita-dark/actions/16/system-lock-screen.svg

<?xml version="1.0" encoding="UTF-8"?>
<svg xmlns="http://www.w3.org/2000/svg" xmlns:xlink="http://www.w3.org/1999/xlink" width="16pt" height="16pt" viewBox="0 0 16 16" version="1.1">
<defs>
<filter id="alpha" filterUnits="objectBoundingBox" x="0%" y="0%" width="100%" height="100%">
  <feColorMatrix type="matrix" in="SourceGraphic" values="0 0 0 0 1 0 0 0 0 1 0 0 0 0 1 0 0 0 1 0"/>
</filter>
<mask id="mask0">
  <g filter="url(#alpha)">
<rect x="0" y="0" width="16" height="16" style="fill:rgb(0%,0%,0%);fill-opacity:0.988235;stroke:none;"/>
  </g>
</mask>
<clipPath id="clip1">
  <rect x="0" y="0" width="16" height="16"/>
</clipPath>
<g id="surface5" clip-path="url(#clip1)">
<path style=" stroke:none;fill-rule:nonzero;fill:rgb(25.882354%,64.705884%,96.078432%);fill-opacity:1;" d="M 5.132812 5.257812 C 5.324219 5.0625 5.640625 5.0625 5.832031 5.257812 L 10.746094 10.167969 C 10.9375 10.363281 10.9375 10.675781 10.746094 10.871094 C 10.550781 11.0625 10.238281 11.0625 10.042969 10.871094 L 5.132812 5.957031 C 4.9375 5.765625 4.9375 5.449219 5.132812 5.257812 Z M 5.132812 5.257812 "/>
</g>
<mask id="mask1">
  <g filter="url(#alpha)">
<rect x="0" y="0" width="16" height="16" style="fill:rgb(0%,0%,0%);fill-opacity:0.988235;stroke:none;"/>
  </g>
</mask>
<clipPath id="clip2">
  <rect x="0" y="0" width="16" height="16"/>
</clipPath>
<g id="surface8" clip-path="url(#clip2)">
<path style=" stroke:none;fill-rule:nonzero;fill:rgb(25.882354%,64.705884%,96.078432%);fill-opacity:1;" d="M 10.746094 5.257812 C 10.9375 5.449219 10.9375 5.765625 10.746094 5.957031 L 5.832031 10.871094 C 5.640625 11.0625 5.324219 11.0625 5.132812 10.871094 C 4.9375 10.675781 4.9375 10.363281 5.132812 10.167969 L 10.042969 5.257812 C 10.238281 5.0625 10.550781 5.0625 10.746094 5.257812 Z M 10.746094 5.257812 "/>
</g>
<mask id="mask2">
  <g filter="url(#alpha)">
<rect x="0" y="0" width="16" height="16" style="fill:rgb(0%,0%,0%);fill-opacity:0.988235;stroke:none;"/>
  </g>
</mask>
<clipPath id="clip3">
  <rect x="0" y="0" width="16" height="16"/>
</clipPath>
<g id="surface11" clip-path="url(#clip3)">
<path style=" stroke:none;fill-rule:nonzero;fill:rgb(25.882354%,64.705884%,96.078432%);fill-opacity:1;" d="M 10.746094 5.257812 C 10.9375 5.449219 10.9375 5.765625 10.746094 5.957031 L 5.832031 10.871094 C 5.640625 11.0625 5.324219 11.0625 5.132812 10.871094 C 4.9375 10.675781 4.9375 10.363281 5.132812 10.167969 L 10.042969 5.257812 C 10.238281 5.0625 10.550781 5.0625 10.746094 5.257812 Z M 10.746094 5.257812 "/>
</g>
</defs>
<g id="surface1">
<path style=" stroke:none;fill-rule:nonzero;fill:rgb(25.882354%,64.705884%,96.078432%);fill-opacity:1;" d="M 7.9375 0.785156 C 3.90625 0.785156 0.660156 4.03125 0.660156 8.0625 C 0.660156 12.09375 3.90625 15.339844 7.9375 15.339844 C 11.96875 15.339844 15.214844 12.09375 15.214844 8.0625 C 15.214844 4.03125 11.96875 0.785156 7.9375 0.785156 Z M 7.9375 1.777344 C 11.417969 1.777344 14.222656 4.582031 14.222656 8.0625 C 14.222656 11.542969 11.417969 14.347656 7.9375 14.347656 C 4.457031 14.347656 1.652344 11.542969 1.652344 8.0625 C 1.652344 4.582031 4.457031 1.777344 7.9375 1.777344 Z M 7.9375 1.777344 "/>
<use xlink:href="#surface5" mask="url(#mask0)"/>
<use xlink:href="#surface8" mask="url(#mask1)"/>
<use xlink:href="#surface11" mask="url(#mask2)"/>
</g>
</svg>

<svg xmlns="http://www.w3.org/2000/svg" xmlns:xlink="http://www.w3.org/1999/xlink" width="16pt" height="16pt" viewBox="0 0 16 16"><defs><filter id="a" filterUnits="objectBoundingBox" x="0%" y="0%" width="100%" height="100%"><feColorMatrix in="SourceGraphic" values="0 0 0 0 1 0 0 0 0 1 0 0 0 0 1 0 0 0 1 0"/></filter><mask id="f"><path fill-opacity=".988" d="M0 0h16v16H0z" filter="url(#a)"/></mask><clipPath id="b"><path d="M0 0h16v16H0z"/></clipPath><g id="e" clip-path="url(#b)"><path d="M5.133 5.258a.49.49 0 0 1 .699 0l4.914 4.91a.502.502 0 0 1 0 .703.502.502 0 0 1-.703 0l-4.91-4.914a.49.49 0 0 1 0-.7zm0 0" fill="#42a5f5"/></g><mask id="h"><path fill-opacity=".988" d="M0 0h16v16H0z" filter="url(#a)"/></mask><clipPath id="c"><path d="M0 0h16v16H0z"/></clipPath><g id="g" clip-path="url(#c)"><path d="M10.746 5.258a.497.497 0 0 1 0 .699l-4.914 4.914a.495.495 0 1 1-.7-.703l4.911-4.91a.495.495 0 0 1 .703 0zm0 0" fill="#42a5f5"/></g><mask id="j"><path fill-opacity=".988" d="M0 0h16v16H0z" filter="url(#a)"/></mask><clipPath id="d"><path d="M0 0h16v16H0z"/></clipPath><g id="i" clip-path="url(#d)"><path d="M10.746 5.258a.497.497 0 0 1 0 .699l-4.914 4.914a.495.495 0 1 1-.7-.703l4.911-4.91a.495.495 0 0 1 .703 0zm0 0" fill="#42a5f5"/></g></defs><path d="M7.938.785A7.262 7.262 0 0 0 .66 8.062a7.262 7.262 0 0 0 7.277 7.278 7.262 7.262 0 0 0 7.278-7.277A7.262 7.262 0 0 0 7.938.785zm0 .992a6.273 6.273 0 0 1 6.285 6.285 6.273 6.273 0 0 1-6.286 6.286 6.273 6.273 0 0 1-6.285-6.286 6.273 6.273 0 0 1 6.285-6.285zm0 0" fill="#42a5f5"/><use xlink:href="#e" mask="url(#f)"/><use xlink:href="#g" mask="url(#h)"/><use xlink:href="#i" mask="url(#j)"/></svg>
